packages/ui-icons/svg/Line/comment.svg

<svg viewBox="0 0 1920 1920" version="1.1" xmlns="http://www.w3.org/2000/svg">
    <path d="M1662.17776,0 L1662.17776,1359.96362 L1013.47511,1359.96362 L453.321206,1920.11752 L453.321206,1359.96362 L0,1359.96362 L0,0 L1662.17776,0 Z M1511.07069,151.107069 L151.107069,151.107069 L151.107069,1208.85655 L604.428275,1208.85655 L604.428275,1555.34506 L950.916784,1208.85655 L1511.07069,1208.85655 L1511.07069,151.107069 Z M906.79352,755.550454 L906.79352,873.079027 L453.321206,873.079027 L453.321206,755.550454 L906.79352,755.550454 Z M1208.85655,453.18521 L1208.85655,570.713782 L453.321206,570.713782 L453.321206,453.18521 L1208.85655,453.18521 Z" stroke="none" stroke-width="1" fill-rule="evenodd"/>
</svg>

<svg viewBox="0 0 1920 1920" version="1.1" xmlns="http://www.w3.org/2000/svg">
    <path d="M0 0h1662.178v1359.964h-648.703l-560.154 560.154v-560.154H0V0zm151.107 151.107v1057.75h453.321v346.488l346.489-346.488h560.154V151.107H151.107zm302.214 419.607V453.185h755.536v117.529H453.32zm0 302.365V755.55h453.473V873.08H453.32z" stroke="none" stroke-width="1" fill-rule="evenodd"/>
</svg>
